X:1
T:Title
%%score { ( 1 3 ) | ( 2 4 5 ) }
L:1/8
M:3/4
K:G
V:1 treble nm="Grand Piano"
V:3 treble 
V:2 bass 
V:4 bass 
V:5 bass 
V:1
 z2 z2[Q:1/4=132] DD | B2 A2 G2 | B4 AG | G2 F2 E2 | G4 FE | D2 F2 G2 | A4 ^GA | B2 z2 [G,^CE]2 | %8
 D4 DD | G2 z2 G2 | c4 EE | E2 =F2 E2 | [EA]4 _BB | B2 G2 [DGB]2 | [FGd]3 [EGc] [DGB]2 | %15
 [CFA]2 G3 A |[M:2/4] [B,G]4 |] %17
V:2
 z2 z2 D,D, | [G,,D,]6 | [G,,D,]6 | [C,,G,,E,C]6 | [A,,E,]6 | C6 | [D,C]6 | z2 G2 A,,2 | %8
 [D,F,]4 [C,F,]2 | z2 A2 =F,2 | [E,G,C]4 [C,G,C]2 | [D,^G,B,]6 | [C,A,]4 [^C,G,^D]2 | %13
 [G,D]2 [B,D]2 z2 | D,,6 | z2[K:treble] [CE]3 [CF] |[M:2/4][K:bass] [G,,D,]4 |] %17
V:3
 x6 | B,6 | B,6 | x6 | C6 | x6 | x6 | B,4 z2 | x6 | [G,D]6 | x6 | x6 | x6 | x6 | x6 | x6 | %16
[M:2/4] x4 |] %17
V:4
 x6 | x6 | x6 | x6 | x6 | [D,F,]2 z2 E,2 | F,4 =F,^F, | [G,,G,]4 z2 | x6 | B,,4 z2 | x6 | x6 | x6 | %13
 D,4 D,2- | D,6 | [D,,D,]6[K:treble] |[M:2/4][K:bass] x4 |] %17
V:5
 x6 | x6 | x6 | x6 | x6 | z2 D,4 | x6 | x6 | x6 | x6 | x6 | x6 | x6 | x6 | x6 | x2[K:treble] x4 | %16
[M:2/4][K:bass] x4 |] %17

